X:8002
T:Harvest Home
T:Cork Hornpipe
R:Reel
C:Trad.
O:Ireland
Z:Paul Hardy's Session Tunebook 2015 (see www.paulhardy.net). Creative Commons cc by-nc-sa licenced.
M:4/4
L:1/8
Q:1/4=120
K:D
A>F|:"D"D>AF>A D>AF>A|d>ef>e d>cB>A|"G"e2 f2 g2 f2|"A7"e>d c>B A>G F>E|
"D"D>AF>A D>AF>A|d>ef>e d>cB>A|"G"e2 f2 "A7"g>ec>e|1 "D"d2 "G"f2 "D"d2 A>F:|2 "D"d2 "G"f2 "D"d2 c>d|:
"A7"e>AA2 f>AA2|g2f2 e>AA2|e2 f2 "G"g2 f2|"A7"(3efe (3dcB (3ABA (3GFE|
"D"D>AF>A D>AF>A|d>ef>e d>cB>A|"G"e2 f2 "A7"g>ec>e|1 "D"d2 "G"f2 "D"d2 c>d:|2 "D"d2 "G"f2 "D"d2|]

